austria/municipalities/70346.svg

<?xml version="1.0" encoding="UTF-8" standalone="no"?>
<svg
   xmlns:dc="http://purl.org/dc/elements/1.1/"
   xmlns:cc="http://creativecommons.org/ns#"
   xmlns:rdf="http://www.w3.org/1999/02/22-rdf-syntax-ns#"
   xmlns:svg="http://www.w3.org/2000/svg"
   xmlns="http://www.w3.org/2000/svg"
   xmlns:sodipodi="http://sodipodi.sourceforge.net/DTD/sodipodi-0.dtd"
   xmlns:inkscape="http://www.inkscape.org/namespaces/inkscape"
   height="555"
   width="470"
   version="1.1"
   id="svg120"
   sodipodi:docname="Wappen_at_rum.svg"
   inkscape:version="0.92.4 (5da689c313, 2019-01-14)">
  <title
     id="title1076">Wappen Rum</title>
  <metadata
     id="metadata126">
    <rdf:RDF>
      <cc:Work
         rdf:about="">
        <dc:format>image/svg+xml</dc:format>
        <dc:type
           rdf:resource="http://purl.org/dc/dcmitype/StillImage" />
        <dc:title>Wappen Rum</dc:title>
        <dc:date>02.05.2020</dc:date>
        <dc:rights>
          <cc:Agent>
            <dc:title>gemeinfrei</dc:title>
          </cc:Agent>
        </dc:rights>
        <dc:source>https://www.rum.gv.at/</dc:source>
        <dc:contributor>
          <cc:Agent>
            <dc:title>Simon Eller</dc:title>
          </cc:Agent>
        </dc:contributor>
      </cc:Work>
    </rdf:RDF>
  </metadata>
  <defs
     id="defs124" />
  <sodipodi:namedview
     pagecolor="#ffffff"
     bordercolor="#666666"
     borderopacity="1"
     objecttolerance="10"
     gridtolerance="10"
     guidetolerance="10"
     inkscape:pageopacity="0"
     inkscape:pageshadow="2"
     inkscape:window-width="1920"
     inkscape:window-height="1017"
     id="namedview122"
     showgrid="false"
     inkscape:zoom="1"
     inkscape:cx="455.85566"
     inkscape:cy="272.38856"
     inkscape:window-x="-8"
     inkscape:window-y="-8"
     inkscape:window-maximized="1"
     inkscape:current-layer="g1074"
     showguides="true"
     inkscape:guide-bbox="true" />
  <g
     id="g1074"
     transform="translate(1.5e-6)">
    <path
       d="M 5,5 H 465 V 335 C 465,455 365,550 235,550 105,550 5,455 5,335 V 5"
       id="path2"
       inkscape:connector-curvature="0"
       style="fill:#0f47af;fill-opacity:1;stroke:none;stroke-width:10;stroke-linecap:square;stroke-linejoin:miter;stroke-miterlimit:4;stroke-dasharray:none;stroke-opacity:1" />
    <path
       sodipodi:nodetypes="ccccccccccccccc"
       inkscape:connector-curvature="0"
       id="path948"
       d="M 198.38086,102.97266 8.9472641,103.0332 H 7.9960923 v 55.00196 l 160.4003877,-0.0176 19.8418,56.73437 c 93.55464,0 4.6e-4,1.4e-4 93.55464,0 l 19.8418,-56.73437 160.40039,0.0176 V 103.0332 h -0.95118 l -189.43359,-0.0605 -17.93164,53.57422 c -37.4062,0 0,0 -37.4062,0 z"
       style="fill:#ffffff;fill-opacity:1;stroke:#000000;stroke-width:4;stroke-linecap:butt;stroke-linejoin:miter;stroke-miterlimit:4;stroke-dasharray:none;stroke-opacity:1" />
    <path
       sodipodi:nodetypes="ccccccccccccccc"
       inkscape:connector-curvature="0"
       id="path948-6"
       d="m 324.12305,211.61133 -17.93164,53.57422 c -142.37932,0.006 0,0 -142.37891,0.006 L 145.88086,211.61719 8.9472641,211.67773 H 7.9960923 v 55 l 107.9003877,-0.0156 19.8418,56.73437 c 198.52539,-0.006 4.6e-4,-3.4e-4 198.52539,-0.006 l 19.8418,-56.73437 107.90234,0.0156 v -55 h -0.95312 z"
       style="fill:#ffffff;fill-opacity:1;stroke:#000000;stroke-width:4;stroke-linecap:butt;stroke-linejoin:miter;stroke-miterlimit:4;stroke-dasharray:none;stroke-opacity:1" />
    <path
       sodipodi:nodetypes="ccccccccccccccc"
       inkscape:connector-curvature="0"
       id="path948-3"
       d="M 379.125,320.92578 361.19336,374.5 c -252.3615,0.007 0,0 -252.36133,0.006 L 90.90039,320.93164 8.9472641,320.99219 H 7.9960923 v 55 l 52.9199217,-0.0156 19.841797,56.73438 c 308.507809,-0.006 0,0 308.507809,-0.006 l 19.84376,-56.73438 52.91992,0.0156 v -55 h -0.95118 z"
       style="fill:#ffffff;fill-opacity:1;stroke:#000000;stroke-width:4;stroke-linecap:butt;stroke-linejoin:miter;stroke-miterlimit:4;stroke-dasharray:none;stroke-opacity:1" />
    <path
       d="M 4.9999985,4.999999 H 465 V 335 C 465,455 365,550 235,550 105,550 4.9999985,455 4.9999985,335 V 4.999999"
       id="path2-7"
       inkscape:connector-curvature="0"
       style="fill:none;fill-opacity:1;stroke:#000000;stroke-width:10;stroke-linecap:square;stroke-linejoin:miter;stroke-miterlimit:4;stroke-dasharray:none;stroke-opacity:1" />
  </g>
</svg>

<svg xmlns="http://www.w3.org/2000/svg" height="555" width="470"><path d="M5 5h460v330c0 120-100 215-230 215S5 455 5 335V5" style="fill:#0f47af;fill-opacity:1;stroke:none;stroke-width:10;stroke-linecap:square;stroke-linejoin:miter;stroke-miterlimit:4;stroke-dasharray:none;stroke-opacity:1"/><path d="m198.38 102.973-189.433.06h-.95v55.002l160.4-.017 19.841 56.734h93.555l19.842-56.734 160.4.017v-55.002h-.951l-189.434-.06-17.931 53.574h-37.407z" style="fill:#fff;fill-opacity:1;stroke:#000;stroke-width:4;stroke-linecap:butt;stroke-linejoin:miter;stroke-miterlimit:4;stroke-dasharray:none;stroke-opacity:1"/><path d="m324.123 211.611-17.932 53.575-142.379.006-17.931-53.575-136.934.06h-.95v55l107.9-.015 19.841 56.735 198.526-.006 19.841-56.735 107.903.016v-55h-.953z" style="fill:#fff;fill-opacity:1;stroke:#000;stroke-width:4;stroke-linecap:butt;stroke-linejoin:miter;stroke-miterlimit:4;stroke-dasharray:none;stroke-opacity:1"/><path d="M379.125 320.926 361.193 374.5l-252.361.006L90.9 320.932l-81.953.06h-.95v55l52.919-.015 19.842 56.734 308.508-.006 19.843-56.734 52.92.015v-55h-.95z" style="fill:#fff;fill-opacity:1;stroke:#000;stroke-width:4;stroke-linecap:butt;stroke-linejoin:miter;stroke-miterlimit:4;stroke-dasharray:none;stroke-opacity:1"/><path d="M5 5h460v330c0 120-100 215-230 215S5 455 5 335V5" style="fill:none;fill-opacity:1;stroke:#000;stroke-width:10;stroke-linecap:square;stroke-linejoin:miter;stroke-miterlimit:4;stroke-dasharray:none;stroke-opacity:1"/></svg>
